OpenDRT 0.2.7/LUTs/Davinci_Intermediate_to_Linear.spi1d
Version 1
From 0 1
Length 8192
Components 1
{
		 0
		 1.168920695e-05
		 2.337841398e-05
		 3.506762101e-05
		 4.675682796e-05
		 5.844603492e-05
		 7.013524194e-05
		 8.182444897e-05
		 9.351365593e-05
		 0.0001052028629
		 0.0001168920699
		 0.0001285812769
		 0.0001402704839
		 0.0001519596902
		 0.0001636488961
		 0.0001753381028
		 0.0001870273118
		 0.0001987165248
		 0.0002104057404
		 0.0002220949552
		 0.0002337841655
		 0.0002454733687
		 0.0002571625672
		 0.0002688517654
		 0.0002805409678
		 0.000292230177
		 0.0003039193902
		 0.0003156086037
		 0.0003272978137
		 0.0003389870181
		 0.0003506762192
		 0.0003623654201
		 0.0003740546237
		 0.0003857438307
		 0.0003974330396
		 0.0004091222503
		 0.0004208114627
		 0.0004325006793
		 0.0004441898995
		 0.0004558791183
		 0.000467568331
		 0.0004792575346
		 0.0004909467321
		 0.0005026359277
		 0.0005143251257
		 0.0005260143257
		 0.0005377035261
		 0.0005493927287
		 0.0005610819355
		 0.0005727711493
		 0.0005844603685
		 0.0005961495883
		 0.0006078388037
		 0.0006195280131
		 0.0006312172193
		 0.0006429064236
		 0.0006545956275
		 0.0006662848309
		 0.0006779740334
		 0.0006896632354
		 0.0007013524375
		 0.0007130416386
		 0.0007247308389
		 0.0007364200409
		 0.0007481092473
		 0.0007597984614
		 0.0007714876812
		 0.0007831769011
		 0.0007948661155
		 0.0008065553222
		 0.0008182445244
		 0.0008299337247
		 0.0008416229257
		 0.0008533121256
		 0.0008650013236
		 0.000876690525
		 0.0008883797354
		 0.0009000689616
		 0.0009117581997
		 0.0009234474373
		 0.0009351366619
		 0.0009468258668
		 0.0009585150594
		 0.0009702042481
		 0.0009818934413
		 0.0009935826416
		 0.001005271844
		 0.001016961048
		 0.001028650251
		 0.001040339454
		 0.001052028656
		 0.001063717859
		 0.001075407061
		 0.001087096264
		 0.001098785466
		 0.001110474669
		 0.001122163871
		 0.001133853071
		 0.001145542269
		 0.001157231471
		 0.001168920681
		 0.001180609906
		 0.001192299143
		 0.00120398838
		 0.001215677607
		 0.001227366818
		 0.001239056018
		 0.001250745216
		 0.001262434418
		 0.001274123625
		 0.001285812836
		 0.001297502047
		 0.001309191255
		 0.001320880459
		 0.001332569662
		 0.001344258863
		 0.001355948065
		 0.001367637267
		 0.00137932647
		 0.001391015673
		 0.001402704875
		 0.001414394077
		 0.00142608328
		 0.001437772483
		 0.001449461685
		 0.001461150887
		 0.00147284009
		 0.001484529293
		 0.001496218495
		 0.001507907695
		 0.001519596893
		 0.001531286094
		 0.001542975304
		 0.00155466453
		 0.001566353766
		 0.001578043004
		 0.001589732231
		 0.001601421442
		 0.001613110644
		 0.001624799842
		 0.001636489041
		 0.001648178244
		 0.001659867446
		 0.001671556649
		 0.001683245851
		 0.001694935054
		 0.001706624256
		 0.001718313459
		 0.001730002661
		 0.001741691864
		 0.001753381066
		 0.001765070269
		 0.001776759472
		 0.001788448669
		 0.001800137862
		 0.001811827062
		 0.00182351628
		 0.001835205531
		 0.001846894809
		 0.001858584083
		 0.001870273324
		 0.001881962507
		 0.001893651651
		 0.00190534079
		 0.001917029957
		 0.001928719171
		 0.001940408413
		 0.001952097658
		 0.001963786882
		 0.001975476069
		 0.001987165232
		 0.001998854394
		 0.002010543576
		 0.002022232795
		 0.002033922036
		 0.00204561128
		 0.002057300502
		 0.002068989689
		 0.002080678852
		 0.002092368014
		 0.002104057196
		 0.00211574641
		 0.002127435642
		 0.002139124883
		 0.002150814121
		 0.002162503357
		 0.002174192598
		 0.002185881832
		 0.002197571049
		 0.002209260235
		 0.002220949399
		 0.002232638561
		 0.002244327743
		 0.002256016961
		 0.002267706203
		 0.002279395446
		 0.002291084669
		 0.002302773856
		 0.002314463019
		 0.002326152181
		 0.002337841363
		 0.002349530576
		 0.002361219809
		 0.002372909049
		 0.002384598287
		 0.002396287523
		 0.002407976764
		 0.002419665998
		 0.002431355215
		 0.002443044402
		 0.002454733566
		 0.002466422727
		 0.002478111909
		 0.002489801127
		 0.002501490369
		 0.002513179612
		 0.002524868835
		 0.002536558021
		 0.002548247182
		 0.002559936343
		 0.002571625529
		 0.002583312968
		 0.002594998746
		 0.00260668694
		 0.002618381643
		 0.002630081566
		 0.002641784559
		 0.002653496477
		 0.002665223221
		 0.002676966525
		 0.002688723106
		 0.002700493175
		 0.002712276973
		 0.0027240745
		 0.002735885625
		 0.002747710519
		 0.002759549358
		 0.002771402328
		 0.002783269327
		 0.002795150051
		 0.002807044194
		 0.002818951547
		 0.002830872283
		 0.002842806665
		 0.002854754954
		 0.002866717235
		 0.00287869336
		 0.002890683329
		 0.00290268714
		 0.002914704684
		 0.002926735961
		 0.002938781232
		 0.002950840759
		 0.002962914774
		 0.00297500313
		 0.002987105478
		 0.002999221469
		 0.003011350878
		 0.003023493902
		 0.003035650802
		 0.003047821841
		 0.003060007086
		 0.00307220639
		 0.003084419795
		 0.003096647345
		 0.003108888961
		 0.00312114462
		 0.003133414536
		 0.003145698929
		 0.003157998
		 0.003170311627
		 0.003182639506
		 0.00319498133
		 0.003207336907
		 0.003219706406
		 0.003232090047
		 0.003244488047
		 0.003256900444
		 0.003269327114
		 0.003281768142
		 0.003294223615
		 0.003306693471
		 0.00331917766
		 0.003331676397
		 0.0033441899
		 0.003356718388
		 0.003369261744
		 0.00338181962
		 0.003394391666
		 0.003406977654
		 0.003419577777
		 0.003432192297
		 0.003444821475
		 0.003457465386
		 0.00347012388
		 0.003482796997
		 0.003495484781
		 0.003508187158
		 0.003520904099
		 0.003533635819
		 0.003546382536
		 0.003559144454
		 0.003571921454
		 0.003584713232
		 0.003597519484
		 0.003610339976
		 0.003623174873
		 0.003636024481
		 0.003648889104
		 0.003661768889
		 0.003674663663
		 0.003687573337
		 0.003700497823
		 0.003713436949
		 0.003726390754
		 0.003739359583
		 0.003752343785
		 0.003765343637
		 0.003778358951
		 0.003791389361
		 0.003804434498
		 0.003817494125
		 0.003830568442
		 0.003843657707
		 0.003856762174
		 0.00386988191
		 0.003883016767
		 0.003896166808
		 0.003909332104
		 0.003922512591
		 0.003935708221
		 0.00394891921
		 0.003962145774
		 0.003975388137
		 0.003988646187
		 0.004001919577
		 0.004015207958
		 0.004028511077
		 0.004041829122
		 0.004055162397
		 0.004068511208
		 0.004081875669
		 0.004095255606
		 0.004108651014
		 0.004122061895
		 0.004135488143
		 0.004148929746
		 0.004162386962
		 0.004175860053
		 0.004189349256
		 0.004202854441
		 0.004216375259
		 0.00422991136
		 0.004243462492
		 0.004257028837
		 0.004270610702
		 0.004284208391
		 0.004297822023
		 0.004311451422
		 0.004325096583
		 0.004338757506
		 0.00435243409
		 0.004366126317
		 0.004379834447
		 0.004393558742
		 0.004407299439
		 0.00442105641
		 0.004434829307
		 0.004448617781
		 0.004462421575
		 0.004476240872
		 0.004490075978
		 0.004503927198
		 0.004517794652
		 0.004531678163
		 0.004545577728
		 0.004559493347
		 0.004573424917
		 0.004587372421
		 0.004601336117
		 0.004615316266
		 0.004629313092
		 0.004643326464
		 0.004657356077
		 0.004671401627
		 0.004685462906
		 0.004699540076
		 0.004713633357
		 0.004727742965
		 0.004741868956
		 0.004756011195
		 0.004770169767
		 0.004784344757
		 0.004798536186
		 0.004812743997
		 0.004826968235
		 0.004841208941
		 0.004855466051
		 0.00486973952
		 0.004884029564
		 0.0048983364
		 0.004912660234
		 0.004927000965
		 0.00494135829
		 0.004955731902
		 0.004970121576
		 0.004984527468
		 0.004998949839
		 0.005013388953
		 0.005027844817
		 0.005042317256
		 0.005056806523
		 0.005071312881
		 0.00508583657
		 0.005100377469
		 0.005114935231
		 0.005129509506
		 0.00514410005
		 0.005158707043
		 0.005173330747
		 0.005187971424
		 0.005202629169
		 0.005217303823
		 0.005231995425
		 0.005246704019
		 0.005261429607
		 0.00527617216
		 0.005290931719
		 0.005305708328
		 0.005320501892
		 0.005335312354
		 0.005350140014
		 0.005364985177
		 0.00537984812
		 0.005394728704
		 0.005409626538
		 0.00542454123
		 0.005439472481
		 0.005454420485
		 0.005469385592
		 0.005484368151
		 0.005499368256
		 0.005514385685
		 0.005529420582
		 0.005544473101
		 0.00555954342
		 0.005574631483
		 0.005589736988
		 0.005604859628
		 0.00561999915
		 0.005635155696
		 0.005650329595
		 0.005665521172
		 0.005680730589
		 0.005695957656
		 0.005711202325
		 0.005726464553
		 0.005741744271
		 0.005757041493
		 0.005772356346
		 0.00578768896
		 0.005803039298
		 0.005818407253
		 0.005833793079
		 0.005849197037
		 0.005864619371
		 0.005880059967
		 0.00589551848
		 0.00591099456
		 0.005926487957
		 0.005941998844
		 0.005957527484
		 0.00597307414
		 0.00598863885
		 0.006004221431
		 0.006019822094
		 0.006035441054
		 0.006051078505
		 0.006066734353
		 0.006082408336
		 0.006098100192
		 0.00611380974
		 0.006129537113
		 0.006145282486
		 0.006161046035
		 0.006176827775
		 0.00619262758
		 0.006208445618
		 0.006224282063
		 0.006240137011
		 0.006256010365
		 0.006271902077
		 0.006287812104
		 0.006303740302
		 0.00631968665
		 0.00633565149
		 0.006351635169
		 0.006367637989
		 0.006383659798
		 0.006399700204
		 0.006415758815
		 0.006431835356
		 0.006447930023
		 0.00646404308
		 0.006480174788
		 0.006496325241
		 0.006512494268
		 0.006528681949
		 0.006544888374
		 0.006561113474
		 0.006577357153
		 0.006593619708
		 0.006609901444
		 0.006626202641
		 0.006642523178
		 0.006658862663
		 0.006675220704
		 0.006691597023
		 0.006707991817
		 0.006724405348
		 0.006740837878
		 0.006757289502
		 0.00677376005
		 0.006790249601
		 0.006806758243
		 0.006823285925
		 0.006839832557
		 0.006856398391
		 0.00687298369
		 0.006889588683
		 0.006906213262
		 0.006922857125
		 0.006939519964
		 0.006956201559
		 0.006972902057
		 0.006989621678
		 0.007006360641
		 0.007023119019
		 0.007039896669
		 0.007056693671
		 0.007073510112
		 0.007090345929
		 0.007107201022
		 0.007124075685
		 0.007140970223
		 0.00715788492
		 0.007174819656
		 0.007191774044
		 0.00720874769
		 0.0072257403
		 0.007242752055
		 0.007259783263
		 0.007276834229
		 0.007293905089
		 0.007310995652
		 0.007328105953
		 0.007345236036
		 0.007362385892
		 0.007379555482
		 0.007396744889
		 0.007413954199
		 0.007431183352
		 0.007448432245
		 0.007465701171
		 0.007482990436
		 0.007500300323
		 0.007517630718
		 0.007534981232
		 0.007552351473
		 0.007569741157
		 0.007587150472
		 0.007604579684
		 0.007622029053
		 0.007639498595
		 0.00765698809
		 0.007674497869
		 0.007692028281
		 0.007709579641
		 0.007727151813
		 0.007744744387
		 0.007762356949
		 0.007779989203
		 0.007797641348
		 0.007815313649
		 0.007833006368
		 0.007850719588
		 0.007868453124
		 0.007886207115
		 0.007903981715
		 0.007921777001
		 0.007939592882
		 0.007957429354
		 0.007975286416
		 0.007993163924
		 0.008011061798
		 0.008028980458
		 0.00804692034
		 0.008064881869
		 0.0080828649
		 0.008100868829
		 0.008118893046
		 0.008136937094
		 0.008155001256
		 0.00817308597
		 0.008191191672
		 0.008209318474
		 0.008227466047
		 0.008245634715
		 0.008263824827
		 0.008282036706
		 0.008300270227
		 0.008318524959
		 0.008336800466
		 0.008355096438
		 0.008373413082
		 0.008391750664
		 0.008410109446
		 0.008428489538
		 0.008446890765
		 0.008465313202
		 0.008483756937
		 0.008502221959
		 0.008520708181
		 0.008539215768
		 0.008557744894
		 0.008576295596
		 0.008594867733
		 0.008613461467
		 0.008632076974
		 0.008650714455
		 0.00866937388
		 0.008688054906
		 0.008706757185
		 0.008725480449
		 0.008744224851
		 0.008762990655
		 0.008781778123
		 0.008800587273
		 0.008819417868
		 0.008838270265
		 0.008857144847
		 0.008876041922
		 0.00889496133
		 0.008913902744
		 0.008932865833
		 0.008951850386
		 0.008970856574
		 0.008989884523
		 0.009008934355
		 0.009028006051
		 0.009047099481
		 0.009066214894
		 0.00908535255
		 0.009104512592
		 0.009123694862
		 0.009142899352
		 0.00916212606
		 0.009181374878
		 0.00920064573
		 0.009219938949
		 0.009239254885
		 0.00925859389
		 0.009277955871
		 0.009297340315
		 0.009316746697
		 0.009336174598
		 0.009355624233
		 0.009375096038
		 0.00939459045
		 0.009414107601
		 0.009433647148
		 0.009453209411
		 0.009472794738
		 0.009492403481
		 0.009512035553
		 0.009531690437
		 0.009551367611
		 0.009571066681
		 0.009590787878
		 0.009610531557
		 0.009630298066
		 0.009650087545
		 0.009669899744
		 0.009689734817
		 0.009709592937
		 0.009729474201
		 0.009749378506
		 0.009769305845
		 0.009789256218
		 0.009809229518
		 0.009829225662
		 0.009849244984
		 0.009869287833
		 0.009889354535
		 0.009909444987
		 0.009929558756
		 0.009949695409
		 0.009969854595
		 0.009990036491
		 0.01001024145
		 0.01003046981
		 0.01005072168
		 0.01007099675
		 0.01009129535
		 0.01011161782
		 0.0101319645
		 0.01015233527
		 0.01017272972
		 0.01019314739
		 0.01021358798
		 0.01023405167
		 0.01025453873
		 0.01027504943
		 0.01029558386
		 0.01031614182
		 0.01033672346
		 0.01035732897
		 0.01037795841
		 0.01039861165
		 0.01041928878
		 0.01043998988
		 0.01046071493
		 0.01048146379
		 0.01050223673
		 0.01052303399
		 0.01054385584
		 0.01056470221
		 0.01058557275
		 0.01060646711
		 0.010627385
		 0.01064832652
		 0.01066929204
		 0.01069028189
		 0.01071129619
		 0.01073233469
		 0.0107533976
		 0.01077448519
		 0.01079559774
		 0.0108167352
		 0.01083789715
		 0.01085908315
		 0.01088029283
		 0.01090152632
		 0.01092278407
		 0.01094406651
		 0.01096537389
		 0.01098670595
		 0.01100806268
		 0.01102944406
		 0.01105085008
		 0.01107228072
		 0.01109373605
		 0.01111521617
		 0.01113672107
		 0.01115825066
		 0.01117980509
		 0.01120138455
		 0.01122298902
		 0.01124461833
		 0.01126627278
		 0.01128795272
		 0.01130965852
		 0.0113313901
		 0.01135314695
		 0.01137492855
		 0.0113967345
		 0.011418565
		 0.01144042042
		 0.0114623011
		 0.01148420715
		 0.01150613826
		 0.01152809476
		 0.01155007697
		 0.01157208523
		 0.0115941194
		 0.01161617915
		 0.01163826412
		 0.01166037404
		 0.01168250904
		 0.01170466939
		 0.01172685533
		 0.011749067
		 0.01177130417
		 0.01179356699
		 0.01181585566
		 0.01183817026
		 0.01186051069
		 0.01188287695
		 0.01190526903
		 0.01192768682
		 0.01195013019
		 0.01197259955
		 0.01199509533
		 0.01201761795
		 0.0120401673
		 0.01206274285
		 0.01208534409
		 0.0121079706
		 0.0121306226
		 0.01215330044
		 0.01217600447
		 0.01219873475
		 0.01222149093
		 0.01224427348
		 0.01226708293
		 0.01228991975
		 0.01231278381
		 0.01233567453
		 0.01235859128
		 0.01238153359
		 0.01240450173
		 0.01242749606
		 0.01245051692
		 0.01247356447
		 0.0124966384
		 0.01251973896
		 0.0125428664
		 0.0125660209
		 0.01258920234
		 0.01261241063
		 0.01263564566
		 0.01265890727
		 0.01268219539
		 0.01270551043
		 0.01272885281
		 0.01275222293
		 0.01277562067
		 0.01279904558
		 0.01282249724
		 0.01284597527
		 0.01286947984
		 0.01289301129
		 0.01291656997
		 0.01294015598
		 0.01296376898
		 0.01298740936
		 0.01301107756
		 0.01303477401
		 0.01305849863
		 0.01308225084
		 0.01310603002
		 0.01312983565
		 0.01315366794
		 0.0131775274
		 0.01320141456
		 0.01322532975
		 0.01324927266
		 0.01327324325
		 0.01329724153
		 0.01332126745
		 0.01334532096
		 0.01336940221
		 0.01339351139
		 0.01341764853
		 0.01344181345
		 0.01346600639
		 0.01349022759
		 0.01351447733
		 0.01353875555
		 0.01356306192
		 0.01358739608
		 0.01361175773
		 0.01363614696
		 0.01366056411
		 0.01368500954
		 0.01370948344
		 0.01373398558
		 0.01375851602
		 0.01378307485
		 0.01380766202
		 0.01383227739
		 0.01385692126
		 0.01388159398
		 0.01390629588
		 0.01393102684
		 0.01395578654
		 0.01398057461
		 0.0140053908
		 0.01403023525
		 0.01405510815
		 0.01408000966
		 0.01410493984
		 0.01412989849
		 0.01415488585
		 0.01417990218
		 0.01420494763
		 0.014230022
		 0.01425512538
		 0.01428025783
		 0.01430541936
		 0.01433060981
		 0.01435582944
		 0.01438107853
		 0.01440635732
		 0.01443166574
		 0.01445700352
		 0.01448237036
		 0.01450776594
		 0.01453319025
		 0.0145586438
		 0.01458412713
		 0.01460964071
		 0.01463518435
		 0.01466075763
		 0.01468636011
		 0.0147119914
		 0.01473765159
		 0.01476334114
		 0.01478906046
		 0.01481480985
		 0.01484058905
		 0.01486639803
		 0.01489223679
		 0.01491810529
		 0.01494400346
		 0.01496993148
		 0.0149958895
		 0.01502187755
		 0.01504789537
		 0.01507394334
		 0.01510002191
		 0.01512613148
		 0.01515227199
		 0.01517844292
		 0.01520464375
		 0.01523087405
		 0.01525713401
		 0.01528342397
		 0.0153097443
		 0.01533609509
		 0.01536247595
		 0.01538888735
		 0.01541532981
		 0.01544180384
		 0.01546830937
		 0.01549484575
		 0.01552141225
		 0.01554800828
		 0.01557463404
		 0.01560129011
		 0.01562797713
		 0.01565469549
		 0.01568144483
		 0.01570822512
		 0.01573503636
		 0.01576187849
		 0.01578875147
		 0.01581565545
		 0.0158425906
		 0.01586955693
		 0.0158965542
		 0.01592358279
		 0.01595064312
		 0.01597773567
		 0.01600486042
		 0.0160320167
		 0.01605920383
		 0.01608642118
		 0.01611366894
		 0.01614094773
		 0.01616825814
		 0.01619560049
		 0.01622297428
		 0.01625037984
		 0.01627781762
		 0.01630528806
		 0.01633279119
		 0.01636032631
		 0.01638789275
		 0.01641548987
		 0.01644311788
		 0.01647077736
		 0.01649846894
		 0.01652619303
		 0.01655394927
		 0.01658173761
		 0.01660955807
		 0.01663741061
		 0.01666529521
		 0.01669321194
		 0.01672116089
		 0.01674914206
		 0.01677715531
		 0.01680520086
		 0.01683327897
		 0.01686138975
		 0.01688953291
		 0.01691770876
		 0.01694591763
		 0.0169741599
		 0.01700243561
		 0.01703074417
		 0.01705908497
		 0.01708745748
		 0.01711586185
		 0.01714429859
		 0.01717276825
		 0.01720127104
		 0.01722980649
		 0.01725837502
		 0.01728697715
		 0.0173156134
		 0.01734428373
		 0.01737298747
		 0.01740172393
		 0.0174304925
		 0.01745929338
		 0.01748812711
		 0.01751699421
		 0.01754589504
		 0.01757482929
		 0.01760379694
		 0.01763279797
		 0.01766183231
		 0.01769089982
		 0.01772000083
		 0.01774913568
		 0.01777830454
		 0.01780750713
		 0.01783674365
		 0.01786601436
		 0.01789531956
		 0.0179246593
		 0.01795403309
		 0.0179834404
		 0.01801288076
		 0.01804235426
		 0.01807186141
		 0.01810140274
		 0.01813097852
		 0.01816058828
		 0.01819023237
		 0.01821991123
		 0.01824962528
		 0.01827937453
		 0.01830915838
		 0.01833897623
		 0.01836882755
		 0.01839871253
		 0.01842863159
		 0.01845858519
		 0.01848857356
		 0.01851859637
		 0.0185486538
		 0.01857874611
		 0.01860887352
		 0.0186390359
		 0.01866923315
		 0.01869946519
		 0.01872973181
		 0.01876003278
		 0.01879036873
		 0.01882074035
		 0.0188511483
		 0.01888159244
		 0.01891207211
		 0.01894258659
		 0.01897313531
		 0.01900371848
		 0.01903433655
		 0.01906498996
		 0.0190956789
		 0.01912640286
		 0.01915716236
		 0.01918795801
		 0.01921879038
		 0.01924965942
		 0.01928056443
		 0.01931150474
		 0.01934247975
		 0.01937348967
		 0.01940453496
		 0.01943561605
		 0.01946673323
		 0.01949788617
		 0.01952907498
		 0.01956029984
		 0.01959156083
		 0.01962285774
		 0.01965419078
		 0.01968556021
		 0.01971696616
		 0.01974840833
		 0.019779887
		 0.01981140253
		 0.01984295529
		 0.01987454534
		 0.0199061721
		 0.01993783496
		 0.01996953337
		 0.02000126747
		 0.02003303776
		 0.02006484479
		 0.02009668881
		 0.02012856932
		 0.02016048672
		 0.02019244156
		 0.02022443433
		 0.02025646505
		 0.02028853303
		 0.0203206376
		 0.02035277811
		 0.0203849547
		 0.02041716798
		 0.02044941856
		 0.02048170687
		 0.02051403252
		 0.02054639554
		 0.02057879601
		 0.02061123398
		 0.02064370936
		 0.02067622222
		 0.02070877265
		 0.02074136068
		 0.02077398618
		 0.02080664931
		 0.02083935022
		 0.02087208896
		 0.0209048652
		 0.02093767937
		 0.02097053201
		 0.02100342363
		 0.02103635418
		 0.02106932307
		 0.02110232971
		 0.02113537357
		 0.02116845484
		 0.02120157389
		 0.02123473107
		 0.02126792648
		 0.02130115959
		 0.02133443106
		 0.02136774167
		 0.02140109217
		 0.0214344825
		 0.02146791181
		 0.02150137923
		 0.02153488398
		 0.02156842625
		 0.02160200673
		 0.02163562612
		 0.02166928494
		 0.02170298281
		 0.02173671965
		 0.02177049545
		 0.0218043102
		 0.0218381638
		 0.02187205642
		 0.02190598823
		 0.02193995926
		 0.02197396918
		 0.02200801843
		 0.02204210754
		 0.02207623701
		 0.02211040681
		 0.02214461637
		 0.02217886507
		 0.02221315236
		 0.02224747834
		 0.02228184354
		 0.02231624847
		 0.02235069342
		 0.02238517782
		 0.02241970216
		 0.02245426704
		 0.02248887308
		 0.02252352034
		 0.02255820799
		 0.02259293515
		 0.02262770105
		 0.02266250585
		 0.02269735025
		 0.02273223495
		 0.02276716046
		 0.02280212636
		 0.02283713265
		 0.02287217941
		 0.02290726668
		 0.02294239433
		 0.02297756251
		 0.02301277138
		 0.02304802097
		 0.02308331091
		 0.02311864171
		 0.02315401398
		 0.02318942835
		 0.02322488485
		 0.02326038269
		 0.02329592097
		 0.02333149893
		 0.02336711672
		 0.02340277503
		 0.02343847457
		 0.02347421575
		 0.02350999793
		 0.02354582154
		 0.0235816872
		 0.02361759552
		 0.02365354658
		 0.02368953956
		 0.02372557357
		 0.02376164783
		 0.0237977625
		 0.02383391828
		 0.02387011586
		 0.02390635575
		 0.02394263749
		 0.02397896114
		 0.02401532689
		 0.02405173486
		 0.02408818496
		 0.02412467718
		 0.02416121151
		 0.02419778788
		 0.02423440615
		 0.02427106661
		 0.0243077696
		 0.02434451531
		 0.02438130331
		 0.02441813399
		 0.02445500789
		 0.0244919256
		 0.0245288873
		 0.02456589205
		 0.0246029388
		 0.02464002646
		 0.02467715489
		 0.02471432554
		 0.02475153997
		 0.02478879962
		 0.02482610421
		 0.0248634525
		 0.02490084328
		 0.02493827546
		 0.02497574928
		 0.02501326563
		 0.02505082538
		 0.02508842919
		 0.02512607649
		 0.02516376734
		 0.02520150191
		 0.02523928033
		 0.02527710252
		 0.02531496844
		 0.02535287811
		 0.02539083148
		 0.02542882849
		 0.02546686927
		 0.025504954
		 0.0255430827
		 0.02558125495
		 0.02561947132
		 0.02565773251
		 0.0256960392
		 0.02573439144
		 0.0257727884
		 0.02581122921
		 0.02584971299
		 0.02588823962
		 0.02592681024
		 0.02596542607
		 0.02600408822
		 0.02604279644
		 0.02608154986
		 0.02612034759
		 0.02615918887
		 0.02619807392
		 0.02623700327
		 0.02627597746
		 0.02631499684
		 0.02635406096
		 0.02639317006
		 0.02643232448
		 0.0264715245
		 0.02651076993
		 0.02655006073
		 0.0265893969
		 0.02662877833
		 0.02666820471
		 0.0267076766
		 0.02674719463
		 0.02678675943
		 0.02682637104
		 0.02686602872
		 0.02690573171
		 0.02694547916
		 0.02698527074
		 0.02702510783
		 0.02706499194
		 0.02710492449
		 0.02714490536
		 0.02718493319
		 0.02722500659
		 0.02726512431
		 0.02730528665
